!!!OTL: Verzweiflung (126a), S. 286
!!!id: T0291
**kern
*clefG2
*k[f#]
*G:
{4d
=1
8d
8b
8a
8g
8g
8f#
8e
8d
=2
8d
8b
4g}
4r
=3
{4d
=4
8d
8b
8a
8g
8g
8f#
8e
8d
=5
8d
8b
4g}
4r
=6
{8b
8cc
=7
8dd
8b
8b
8b
4b
8a
8b
=8
2cc}
4r
=9
{8cc
8cc
=10
8cc
8a
8g
8dd
8dd
8dd
8cc
8cc
=11
2b}
4r
==
*-
!!!minrhy: 8
!!!meters: 4/4 ]  ZZ[4
!!!cut: Verzweiflung (126a), S. 286
!!!reg: Luxemburg
!!!trd: Singendes Volk, Esch-Alzette 1937 posth.
!!!rhy1: X_  XXXXXXXX  XXX_0_
!!!rhy2: X_  XXXXXXXX  XXX_0_
!!!key: T0291  08  G 4/4 ]  ZZ[4
!!!mod: HEPTATONIK IONISCH]  AMBITUS[8
!!!kad: 1143
!!!akz: -51-5_-51-5_534_453_
!!!fot: 'a__a__b__c__
!!!for: 'a__a__b__aw_
!!!fok: '^a_^a_~a_\__
!! PHRAS[AUFTAKTIG]
!!!fkt: Liebeslieder
!!!bem: StraPen, fff Witry, 17.1.1933
!! THILL, Mathias:
!! PR[29] 2K[5] 2G[5] 3K[0] 3G[2] 4A[2] 4Ü[0] 5A[0] 6K[0] 6G[10]
!! 7K[0] 7G[0] 8A[0] MEHR[0] SI[24] ABS[41] SR[10] SP[15]
!! ST[8] 2k[10] 2g[27] 3k[2] 3g[5] 4d[2] 4ü[0] 5d[0] 6k[0] 6g[0]
!! 7k[0] 7g[0] 8d[0] mehr[0] si[46] dm[-22] sr[37] sp[10]
!! 1F[70] 2F[26] 3F[4] 4F[0] LF[0] 2P[0] 3P[0] 4P[0] TRI[0] DF[3] AB[46]
!! TF[0] U3K[0] U3[0] U4[0] U4Ü[0] U5[19] U6K[0] U6[5] U7K[0] U7[5]
!! N1[14] N2K[0] N2[14] N3K[0] N3[29] N4[7] N4Ü[0] N5[7] N6K[0] N6[0]
!!!n7k: 0] N7[0] O1[0] O2K[0] O2[0] O3K[0] O3[0] HÖ[0
